X: 35193
T: Rooney's Favourite
R: jig
M: 6/8
K: Ddorian
|:A|dcA GEA|DED DCA,|C/D/CG, CDE|GEA GA/B/c|
dcA GEA|DED DCA,|CEG cGE|DED D2:|
A,|:DF/G/A dfe|d^cd AFD|CE/F/G c/B/cd|edc AGE|
DF/G/A dfe|d^cd AB=c|dcA GEA|1 DED DCA,:|2 DED D3||

